humanity-icon-theme/Humanity/apps/24/bluetooth.svg

<?xml version="1.0" encoding="UTF-8" standalone="no"?>
<!-- Created with Inkscape (http://www.inkscape.org/) -->

<svg
   xmlns:svg="http://www.w3.org/2000/svg"
   xmlns="http://www.w3.org/2000/svg"
   xmlns:xlink="http://www.w3.org/1999/xlink"
   version="1.0"
   width="24"
   height="24"
   id="svg2160">
  <defs
     id="defs2162">
    <linearGradient
       id="linearGradient3908">
      <stop
         id="stop3910"
         style="stop-color:#8badea;stop-opacity:1"
         offset="0" />
      <stop
         id="stop3912"
         style="stop-color:#6396cd;stop-opacity:1"
         offset="0.2261835" />
      <stop
         id="stop3914"
         style="stop-color:#3b7caf;stop-opacity:1"
         offset="0.66093999" />
      <stop
         id="stop3916"
         style="stop-color:#194c70;stop-opacity:1"
         offset="1" />
    </linearGradient>
    <linearGradient
       id="linearGradient4140">
      <stop
         id="stop4142"
         style="stop-color:#ffffff;stop-opacity:1"
         offset="0" />
      <stop
         id="stop4144"
         style="stop-color:#ffffff;stop-opacity:0"
         offset="1" />
    </linearGradient>
    <filter
       color-interpolation-filters="sRGB"
       id="filter3274">
      <feGaussianBlur
         id="feGaussianBlur3276"
         stdDeviation="0.511583" />
    </filter>
    <linearGradient
       id="linearGradient2490-182-124">
      <stop
         id="stop2788"
         style="stop-color:#1f4b6a;stop-opacity:1"
         offset="0" />
      <stop
         id="stop2790"
         style="stop-color:#4083c2;stop-opacity:1"
         offset="1" />
    </linearGradient>
    <linearGradient
       x1="11.355216"
       y1="3.3076737"
       x2="11.355216"
       y2="18.202812"
       id="linearGradient3893"
       xlink:href="#linearGradient4140"
       gradientUnits="userSpaceOnUse"
       gradientTransform="matrix(1.1788217,0,0,1.1854399,-0.96703756,-1.6325592)" />
    <linearGradient
       x1="25"
       y1="46"
       x2="24"
       y2="-1"
       id="linearGradient3901"
       xlink:href="#linearGradient2490-182-124"
       gradientUnits="userSpaceOnUse"
       gradientTransform="matrix(0.45403393,0,0,0.46630002,1.1031852,1.2750995)" />
    <linearGradient
       x1="27"
       y1="-5"
       x2="27"
       y2="54"
       id="linearGradient3906"
       xlink:href="#linearGradient3908"
       gradientUnits="userSpaceOnUse"
       gradientTransform="matrix(0.45403393,0,0,0.46630002,1.1031852,0.80879954)" />
    <linearGradient
       id="linearGradient8838">
      <stop
         id="stop8840"
         style="stop-color:#000000;stop-opacity:1"
         offset="0" />
      <stop
         id="stop8842"
         style="stop-color:#000000;stop-opacity:0"
         offset="1" />
    </linearGradient>
    <radialGradient
       cx="62.625004"
       cy="8.1666756"
       r="10.625"
       fx="62.625004"
       fy="8.1666756"
       id="radialGradient2855"
       xlink:href="#linearGradient8838"
       gradientUnits="userSpaceOnUse"
       gradientTransform="matrix(0.75294112,0,0,0.18823528,-35.15294,21.462743)" />
  </defs>
  <path
     d="m 20,22 c 0,1.656854 -1.450048,1.915493 -8.077465,1.915493 C 5.2951182,23.915493 4,23.656854 4,22 c 0,-1.656854 1.372583,-2 8,-2 6.627417,0 8,0.343146 8,2 l 0,0 z"
     id="path8836"
     style="opacity:0.3;fill:url(#radialGradient2855);fill-opacity:1;fill-rule:evenodd;stroke:none;stroke-width:0.99999988;marker:none;visibility:visible;display:inline;overflow:visible" />
  <rect
     width="14.969084"
     height="20.969084"
     rx="7.5"
     ry="7.5"
     x="4.5154581"
     y="1.5154581"
     id="rect3363"
     style="color:#000000;fill:url(#linearGradient3906);fill-opacity:1;fill-rule:evenodd;stroke:url(#linearGradient3901);stroke-width:1.03091633;stroke-linecap:butt;stroke-linejoin:miter;stroke-miterlimit:4;stroke-opacity:1;stroke-dasharray:none;stroke-dashoffset:0;marker:none;visibility:visible;display:inline;overflow:visible" />
  <rect
     width="12.967038"
     height="18.967039"
     rx="6.5"
     ry="6.5"
     x="5.5164809"
     y="2.5164809"
     id="rect3365"
     style="opacity:0.3;color:#000000;fill:none;stroke:url(#linearGradient3893);stroke-width:1.03296196;stroke-linecap:butt;stroke-linejoin:miter;stroke-miterlimit:4;stroke-opacity:1;stroke-dasharray:none;stroke-dashoffset:0;marker:none;visibility:visible;display:inline;overflow:visible" />
  <path
     d="M 14.638608,9.077196 32.499999,-6.708303 23.58028,-15.5 23.553586,13.5 32.493732,4.775843 14.500001,-8.393903"
     transform="matrix(0.36841109,0,0,0.38149012,2.8103735,11.98949)"
     id="path3401"
     style="opacity:0.4;fill:none;stroke:#000000;stroke-width:2.66742373;stroke-linecap:butt;stroke-linejoin:miter;stroke-miterlimit:4;stroke-opacity:1;stroke-dasharray:none;filter:url(#filter3274)" />
  <path
     d="M 8.2033995,15.83384 14.783733,9.8118309 11.497609,6.4578862 11.487809,17.521097 14.781458,14.192917 8.1523679,9.1687919"
     id="path3367"
     style="fill:none;stroke:#ffffff;stroke-width:1;stroke-linecap:butt;stroke-linejoin:miter;stroke-miterlimit:4;stroke-opacity:1;stroke-dasharray:none" />
</svg>

<?xml version="1.0" encoding="UTF-8" standalone="no"?>
<!-- Created with Inkscape (http://www.inkscape.org/) -->
<svg id="svg2160" xmlns="http://www.w3.org/2000/svg" height="24" width="24" version="1.0" xmlns:xlink="http://www.w3.org/1999/xlink">
 <defs id="defs2162">
  <filter id="filter3274" color-interpolation-filters="sRGB">
   <feGaussianBlur id="feGaussianBlur3276" stdDeviation="0.511583"/>
  </filter>
  <linearGradient id="linearGradient3893" y2="18.203" gradientUnits="userSpaceOnUse" x2="11.355" gradientTransform="matrix(1.1788 0 0 1.1854 -.96704 -1.6326)" y1="3.3077" x1="11.355">
   <stop id="stop4142" style="stop-color:#fff" offset="0"/>
   <stop id="stop4144" style="stop-color:#fff;stop-opacity:0" offset="1"/>
  </linearGradient>
  <linearGradient id="linearGradient3901" y2="-1" gradientUnits="userSpaceOnUse" x2="24" gradientTransform="matrix(.45403 0 0 .46630 1.1032 1.2751)" y1="46" x1="25">
   <stop id="stop2788" style="stop-color:#1f4b6a" offset="0"/>
   <stop id="stop2790" style="stop-color:#4083c2" offset="1"/>
  </linearGradient>
  <linearGradient id="linearGradient3906" y2="54" gradientUnits="userSpaceOnUse" x2="27" gradientTransform="matrix(.45403 0 0 .46630 1.1032 .80880)" y1="-5" x1="27">
   <stop id="stop3910" style="stop-color:#8badea" offset="0"/>
   <stop id="stop3912" style="stop-color:#6396cd" offset=".22618"/>
   <stop id="stop3914" style="stop-color:#3b7caf" offset=".66094"/>
   <stop id="stop3916" style="stop-color:#194c70" offset="1"/>
  </linearGradient>
  <radialGradient id="radialGradient2855" gradientUnits="userSpaceOnUse" cy="8.1667" cx="62.625" gradientTransform="matrix(.75294 0 0 .18824 -35.153 21.463)" r="10.625">
   <stop id="stop8840" offset="0"/>
   <stop id="stop8842" style="stop-opacity:0" offset="1"/>
  </radialGradient>
 </defs>
 <path id="path8836" style="opacity:.3;fill-rule:evenodd;fill:url(#radialGradient2855)" d="m20 22c0 1.6569-1.45 1.9155-8.0775 1.9155-6.6269-0.001-7.922-0.259-7.922-1.916 0-1.6569 1.3726-2 8-2s8 0.34315 8 2z"/>
 <rect id="rect3363" style="color:#000000;fill-rule:evenodd;stroke:url(#linearGradient3901);stroke-width:1.0309;fill:url(#linearGradient3906)" rx="7.5" ry="7.5" height="20.969" width="14.969" y="1.5155" x="4.5155"/>
 <rect id="rect3365" style="opacity:.3;color:#000000;stroke:url(#linearGradient3893);stroke-width:1.033;fill:none" rx="6.5" ry="6.5" height="18.967" width="12.967" y="2.5165" x="5.5165"/>
 <path id="path3401" style="opacity:.4;filter:url(#filter3274);stroke:#000;stroke-width:2.6674;fill:none" d="m14.639 9.0772 17.861-15.786-8.92-8.7912-0.026 29 8.94-8.7242-17.994-13.17" transform="matrix(.36841 0 0 .38149 2.8104 11.989)"/>
 <path id="path3367" style="stroke:#fff;fill:none" d="m8.2034 15.834 6.5806-6.0222-3.286-3.3539-0.01 11.063 3.293-3.328-6.6286-5.0242"/>
</svg>
